X: 1
T: String Quartet in G Major opus 54 no 1 mvt 3
C: Franz Joseph Haydn
%%abc-version 2.0
%%abcx-abcm2ps-target-version 5.9.1 (29 Sep 2008)
%%abc-creator hum2abc beta
%%abcx-conversion-date 2021/02/14 14:38:09
%%abc-copyright Copyright (c) 1994, 2000 Center for Computer Assisted Research in the Humanities
%%abc-edited-by Frances Bennion
%%abcx-initial-encoding-date 1997/04/15
%%gracespace 0 6 6
%%humdrum-veritas 3592591039
%%humdrum-veritas-data 3164454876
%%linebreak <none>
%%barnumbers 0
L: 1/8
M: 3/4
N: Derived from op54n1-03.krn
Q: "Menuetto"
%%staves [1 2 3 4]
V: 1
V: 2
V: 3 clef=alto
V: 4 clef=bass
K: G
[V:1]z4 D3/G/ [I:setbarnb1]|
[V:2]z4 z2 |
[V:3]z4 z2 |
[V:4]z4 z2 |
[V:1]B6 |
[V:2]G6 |
[V:3]D6 |
[V:4]G,2 G,2 G,2 |
[V:1]Ad d4 |
[V:2]F6 |
[V:3]C6 |
[V:4]G,2 G,2 G,2 |
[V:1]d2 cB AG |
[V:2]G2 z4 |
[V:3]B,2 B,2 B,2 |
[V:4]G,2 G,2 G,2 |
[V:1]F2 A2 A2 |
[V:2]z6 |
[V:3]A,2 G,F, E,D, |
[V:4]D,6 |
[V:1]A2 z2 D3/G/ |
[V:2]z6 |
[V:3]z6 |
[V:4]D,2 ^C,=C, B,,A,, |
[V:1]B6 |
[V:2]G6 |
[V:3]D6 |
[V:4]G,,2 G,2 G,2 |
[V:1]A^d2 <d2 e |
[V:2]F6 |
[V:3]C6 |
[V:4]G,2 G,2 G,2 |
[V:1]ed cB AG |
[V:2]G2 z2 D2 |
[V:3]B,2 z4 |
[V:4]G,2 z2 B,,2 |
[V:1]A2 c2 F2 |
[V:2]E2 C2 A,2 |
[V:3]z2 E2 C2 |
[V:4]C,2 A,,2 D,2 |
[V:1]G2 z2 B,3/E/ |
[V:2]B,2 z4 |
[V:3]B,2 z4 |
[V:4]G,,2 G,2 z2 |
[V:1]G2 B2 e2 |
[V:2]GB GB GB |
[V:3]EG EG EG |
[V:4]E,2 E,2 E,2 |
[V:1]g2 e2 ^a/b3/ |
[V:2]GB GB GB |
[V:3]EG BG EG |
[V:4]E,2 E,2 E,2 |
[V:1]B2 B2 B2 |
[V:2]FB FB FB |
[V:3]^DF DF DF |
[V:4]^D,2 D,2 D,2 |
[V:1]B4 b3/f/ |
[V:2]FB FB FB |
[V:3]^DF DF DF |
[V:4]^D,2 D,2 D,2 |
[V:1]g2 e2 a3/e/ |
[V:2]GB GB EA |
[V:3]EG BG ^CE |
[V:4]E,2 E,2 ^C,2 |
[V:1]f2 d2 f3/a/ |
[V:2]FA FA Fd |
[V:3]DF AF DF |
[V:4]D,2 D,2 D,2 |
[V:1]d'2 d'2 d'2 |
[V:2]f2 g2 ^g2 |
[V:3]D^C D^D E^E |
[V:4]B,,2 B,,2 B,,2 |
[V:1]d'6 |
[V:2]a6 |
[V:3]F6 |
[V:4]A,,6 |
[V:1]E6 |
[V:2]^C6 |
[V:3]G,6 |
[V:4]A,,6 |
[V:1]D2 z2 ^C3/D/ |
[V:2]D2 z4 |
[V:3]F,2 z4 |
[V:4]D,,2 D,2 D,2 |
[V:1]F4 ^C3/D/ |
[V:2]D4 z2 |
[V:3]A,4 z2 |
[V:4]D,,2 D,2 D,2 |
[V:1]G4 ^C3/D/ |
[V:2]^C4 z2 |
[V:3]_B,4 z2 |
[V:4]D,,2 D,2 D,2 |
[V:1]A2 GF ED |
[V:2]C4 z2 |
[V:3]F,4 z2 |
[V:4]D,,2 z2 ^C,,D,, |
[V:1]C2 >B,2 D3/G/ |
[V:2]A,2 z4 |
[V:3]D,2 z4 |
[V:4]F,,2 z4 |
[V:1]B6 |
[V:2]G6 |
[V:3]D6 |
[V:4]G,2 G,2 G,2 |
[V:1]Ad d4 |
[V:2]F6 |
[V:3]C6 |
[V:4]G,2 G,2 G,2 |
[V:1]d2 cB AG |
[V:2]G2 z4 |
[V:3]B,2 B,2 B,2 |
[V:4]G,2 G,2 G,2 |
[V:1]F2 A2 A2 |
[V:2]z6 |
[V:3]A,2 G,F, E,D, |
[V:4]D,6 |
[V:1]A2 z2 D3/G/ |
[V:2]z6 |
[V:3]z6 |
[V:4]D,2 ^C,=C, B,,A,, |
[V:1]B6 |
[V:2]G6 |
[V:3]D6 |
[V:4]G,,2 G,2 G,2 |
[V:1]A^d2 <d2 e |
[V:2]F6 |
[V:3]C6 |
[V:4]G,2 G,2 G,2 |
[V:1]ed cB AG |
[V:2]G2 z2 D2 |
[V:3]B,2 z4 |
[V:4]G,2 z2 B,,2 |
[V:1]A2 c2 F2 |
[V:2]E2 C2 A,2 |
[V:3]z2 E2 C2 |
[V:4]C,2 A,,2 D,2 |
[V:1]G2 z4 |
[V:2]G,2 z4 |
[V:3]B,2 z4 |
[V:4]E,2 z4 |
[V:1]z4 G3/c/ |
[V:2]z6 |
[V:3]z6 |
[V:4]z6 |
[V:1]c6 |
[V:2]G2 G2 G2 |
[V:3]E2 E2 E2 |
[V:4]z6 |
[V:1]B=f f4 |
[V:2]^G2 G2 G2 |
[V:3]D2 D2 D2 |
[V:4]z6 |
[V:1]=fe dc BA |
[V:2]A2 A2 A2 |
[V:3]C2 C2 C2 |
[V:4]z6 |
[V:1]A_e e4 |
[V:2]F2 F2 F2 |
[V:3]C2 C2 C2 |
[V:4]z6 |
[V:1]Ae e4 |
[V:2]G2 G2 G2 |
[V:3]^C2 C2 C2 |
[V:4]z6 |
[V:1]A>f B>g c3/a/ |
[V:2]F2 G2 A2 |
[V:3]D6- |
[V:4]C,2 B,,2 A,,2 |
[V:1]d>d' b>g d3/B/ |
[V:2]B2 G,2 D2 |
[V:3]D2 z4 |
[V:4]G,,2 z2 B,,2 |
[V:1]A2 c2 F2 |
[V:2]E2 C2 A,2 |
[V:3]z2 E2 C2 |
[V:4]C,2 A,,2 D,2 |
[V:1]G2 z4 |
[V:2]B,2 z4 |
[V:3]B,2 z4 |
[V:4]G,,2 z2 G,B, |
[V:1]z6 |
[V:2]z2 A2 A2 |
[V:3]z2 D2 D2 |
[V:4]D^C =CA, F,D, |
[V:1]z6 |
[V:2]B2 G2 FG |
[V:3]D2 z2 CB, |
[V:4]G,D, B,,G,, A,,G,, |
[V:1]z6 |
[V:2]A2 A2 BA/B/ |
[V:3]A,2 z2 G,2 |
[V:4]F,,D,, F,,D,, G,,D,, |
[V:1]z6 |
[V:2]c2 z4 |
[V:3]F,2 z4 |
[V:4]A,,C, D,F, G,B, |
[V:1]z6 |
[V:2]z2 A2 A2 |
[V:3]z2 D2 D2 |
[V:4]D^C =CA, F,D, |
[V:1]z6 |
[V:2]B2 G2 B2 |
[V:3]D2 z4 |
[V:4]G,D, B,,G,, E,,D,, |
[V:1]z6 |
[V:2]g2 fe ^de |
[V:3]^A,6 |
[V:4]C,,E,, G,,C, E,C, |
[V:1]z6 |
[V:2]^d2 z4 |
[V:3]B,2 z4 |
[V:4]B,,^D, F,B, DB, |
[V:1]z2 ^GB d=f |
[V:2]z6 |
[V:3]z2 ^G2 G2 |
[V:4]A,^G, B,G, E,D, |
[V:1]ec BA z2 |
[V:2]z6 |
[V:3]A2 z4 |
[V:4]C,E, ^G,A, CA, |
[V:1]z2 FA ce |
[V:2]z6 |
[V:3]z4 F2 |
[V:4]G,F, A,F, D,C, |
[V:1]dB AG =fe/f/ |
[V:2]z4 =FE/F/ |
[V:3]G2 z2 G,2- |
[V:4]B,,D, F,G, B,,D, |
[V:1]e2 gf/g/ f2 |
[V:2]E2 GF/G/ F2 |
[V:3]G,2 A,4 |
[V:4]C,G, ^C,E, D,A, |
[V:1]ag/a/ g2 c'2 |
[V:2]AG/A/ G2 c2 |
[V:3]B,2 C2 A2 |
[V:4]^D,B, E,C F,D |
[V:1]b2 a2 g2 |
[V:2]B2 A2 G2 |
[V:3]G2 C2 ^C2 |
[V:4]G,D CE ^CE |
[V:1]f4 z2 |
[V:2]F4 z2 |
[V:3]D2 z4 |
[V:4]DA, F,D, G,B, |
[V:1]z2 a2 a2 |
[V:2]z2 A2 A2 |
[V:3]z2 D2 D2 |
[V:4]D^C =CA, F,D, |
[V:1]b2 g2 fg |
[V:2]B2 G2 FG |
[V:3]D2 z2 CB, |
[V:4]G,D, B,,G,, A,,G,, |
[V:1]a2 a2 ba/b/ |
[V:2]A2 A2 BA/B/ |
[V:3]A,2 z2 G,2 |
[V:4]F,,D,, F,,D,, G,,D,, |
[V:1]c'2 z4 |
[V:2]c2 z4 |
[V:3]F,2 z4 |
[V:4]A,,C, D,F, G,B, |
[V:1]z2 a2 a2 |
[V:2]z2 A2 A2 |
[V:3]z2 D2 D2 |
[V:4]D^C =CA, F,D, |
[V:1]b2 g2 gf/g/ |
[V:2]B2 G2 GF/G/ |
[V:3]D2 z4 |
[V:4]G,D, B,,G,, E,,D,, |
[V:1]a2 c'2 f2 |
[V:2]A2 c2 F2 |
[V:3]E2 C2 A,2 |
[V:4]C,,E,, A,,C, D,D,, |
[V:1]g2 z4 |]
[V:2]G2 z4 |]
[V:3]B,2 z4 |]
[V:4]G,,2 G,2 z2 |]

